Newaita-dark/apps/64/com.github.philip-scott.wallpaperize.svg

<svg height="64" viewBox="0 0 64 64" width="64" xmlns="http://www.w3.org/2000/svg" xmlns:xlink="http://www.w3.org/1999/xlink"><linearGradient id="a" gradientUnits="userSpaceOnUse" x1="31.75304" x2="31.75304" y1="56.067868" y2="58.71395600006"><stop offset="0" stop-opacity=".27451"/><stop offset="1" stop-opacity="0"/></linearGradient><linearGradient id="b"><stop offset="0" stop-opacity=".313726"/><stop offset=".222222" stop-opacity=".27451"/><stop offset="1" stop-opacity="0"/></linearGradient><radialGradient id="c" cx="450.908936" cy="189.579361" gradientTransform="matrix(.00000035 -.156265 -.281277 -.0000002 106.907382 127.190661)" gradientUnits="userSpaceOnUse" r="21.166656" xlink:href="#b"/><radialGradient id="d" cx="450.908936" cy="189.579361" gradientTransform="matrix(-.00000035 .156265 .281277 .0000002 -43.401323 -15.054962)" gradientUnits="userSpaceOnUse" r="21.166656" xlink:href="#b"/><radialGradient id="e" cx="450.908936" cy="189.579361" gradientTransform="matrix(-.00000035 -.156265 .281277 -.0000002 -43.401323 127.190661)" gradientUnits="userSpaceOnUse" r="21.166656" xlink:href="#b"/><radialGradient id="f" cx="450.908936" cy="189.579361" gradientTransform="matrix(.00000035 .156265 -.281277 .0000002 106.907378 -15.054963)" gradientUnits="userSpaceOnUse" r="21.166656" xlink:href="#b"/><linearGradient id="g" gradientTransform="matrix(.150699 0 0 .434824 -11.708026 67.282696)" gradientUnits="userSpaceOnUse" x1="306.916656" x2="305.954559" y1="-25.791676" y2="-135.329163"><stop offset="0" stop-color="#f48fb1"/><stop offset="1" stop-color="#9fa8da"/></linearGradient><linearGradient id="h" gradientUnits="userSpaceOnUse" x1="32.122477" x2="32.122477" y1="56.48882084798" y2="13.12601893001"><stop offset="0" stop-color="#424242"/><stop offset="1" stop-color="#757575"/></linearGradient><linearGradient id="i" gradientUnits="userSpaceOnUse" x1="42.33742513802" x2="39.6913371959" y1="24.31480697106" y2="16.37653903457"><stop offset="0" stop-color="#ffe0b2"/><stop offset="1" stop-color="#fff3e0"/></linearGradient><linearGradient id="j" gradientUnits="userSpaceOnUse" x1="32.122477" x2="32.122477" y1="56.48882184798" y2="13.12601993001"><stop offset="0" stop-color="#9fa8da"/><stop offset="1" stop-color="#c5cae9"/></linearGradient><linearGradient id="k" gradientUnits="userSpaceOnUse" x1="31.753056" x2="31.753056" y1="56.06789790428" y2="8.43831238278"><stop offset="0" stop-color="#bdbdbd"/><stop offset="1" stop-color="#e0e0e0"/></linearGradient><path d="m9.261719 56.066406h44.984375v2.648438h-44.984375zm0 0" fill="url(#a)"/><path d="m54.246094 56.066406h5.289062v-2.644531h-5.289062zm0 0" fill="url(#c)"/><path d="m9.261719 56.066406h-5.292969v2.648438h5.292969zm0 0" fill="url(#d)"/><path d="m9.261719 56.066406h-5.292969v-2.644531h5.292969zm0 0" fill="url(#e)"/><path d="m54.246094 56.066406h5.289062v2.648438h-5.289062zm0 0" fill="url(#f)"/><path d="m6.613281 8.4375h50.277344c1.460937 0 2.644531 1.183594 2.644531 2.648438v42.335937c0 1.460937-1.183594 2.644531-2.644531 2.644531h-50.277344c-1.460937 0-2.644531-1.183594-2.644531-2.644531v-42.335937c0-1.464844 1.183594-2.648438 2.644531-2.648438zm0 0" fill="url(#g)"/><path d="m18.757812 24.8125c-.433593.007812-.84375.179688-1.148437.484375l-13.640625 13.640625v14.484375c0 1.464844 1.179688 2.644531 2.644531 2.644531h50.277344c1.464844 0 2.644531-1.179687 2.644531-2.644531v-14.621094l-9.636718-8.566406c-.6875-.609375-1.738282-.542969-2.34375.148437l-10.507813 12.011719-17.097656-17.097656c-.316407-.316406-.746094-.488281-1.191407-.484375zm0 0" fill="url(#h)"/><path d="m6.613281 56.09375c-1.464843 0-2.644531-1.179688-2.644531-2.644531v-.6875c0 1.464843 1.179688 2.644531 2.644531 2.644531h50.277344c1.464844 0 2.644531-1.179688 2.644531-2.644531v.6875c0 1.464843-1.179687 2.644531-2.644531 2.644531zm0 0" fill-opacity=".235294"/><path d="m6.613281 8.589844c-1.464843 0-2.644531 1.179687-2.644531 2.648437v.316407c0-1.464844 1.179688-2.644532 2.644531-2.644532h50.277344c1.464844 0 2.644531 1.179688 2.644531 2.644532v-.316407c0-1.46875-1.179687-2.648437-2.644531-2.648437zm0 0" fill="#fff" fill-opacity=".392157"/><path d="m44.15625 15.976562c-1.601562 0-3 .832032-3.789062 2.09375.527343-.238281 1.117187-.371093 1.734374-.371093 2.328126 0 4.203126 1.875 4.203126 4.207031 0 1.117188-.433594 2.132812-1.140626 2.886719 1.984376-.457031 3.457032-2.226563 3.457032-4.351563 0-2.472656-1.992188-4.464844-4.464844-4.464844zm0 0" fill="url(#i)"/><path d="m6.613281 8.4375c-1.464843 0-2.644531 1.179688-2.644531 2.648438v16.386718c12.828125-3.691406 27.734375-5.804687 43.660156-5.804687 4.042969 0 8.015625.136719 11.90625.398437v-10.980468c0-1.46875-1.179687-2.648438-2.644531-2.648438zm0 0" fill="#fff" fill-opacity=".117647"/><path d="m18.757812 24.8125c-.433593.007812-.84375.179688-1.148437.484375l-6.503906 6.507813 1.835937 2.167968c.835938.835938 3.257813.878906 5.839844-.832031 1.652344-1.644531 3.636719-1.496094 5.003906 0 1.9375 1.796875 3.695313 1.667969 5.675782 1.667969l-9.511719-9.511719c-.316407-.316406-.746094-.488281-1.191407-.484375zm30.019532 5.003906c-.453125.007813-.902344.199219-1.222656.566406l-3.871094 4.425782h.113281c.289063.632812.417969 2.917968 1.667969 1.667968 2.136718-2.136718 2.5-1.253906 3.335937-.417968 1.25 1.25 2.085938 2.5 3.335938 2.085937 2.085937-.835937 2.449219-2.894531 1.523437-4.570312l-3.761718-3.339844c-.320313-.285156-.722657-.421875-1.121094-.417969zm0 0" fill="url(#j)"/><path d="m6.613281 8.4375c-1.464843 0-2.644531 1.179688-2.644531 2.648438v42.335937c0 1.464844 1.179688 2.644531 2.644531 2.644531h50.277344c1.464844 0 2.644531-1.179687 2.644531-2.644531v-42.335937c0-1.46875-1.179687-2.648438-2.644531-2.648438zm.996094 2.648438h48.289063c.550781 0 .992187.441406.992187.992187v40.351563c0 .550781-.441406.992187-.992187.992187h-48.289063c-.550781 0-.996094-.441406-.996094-.992187v-40.351563c0-.550781.445313-.992187.996094-.992187zm0 0" fill="url(#k)"/><path d="m6.613281 8.4375c-1.464843 0-2.644531 1.179688-2.644531 2.648438v.503906c0-1.464844 1.179688-2.644532 2.644531-2.644532h50.277344c1.464844 0 2.644531 1.179688 2.644531 2.644532v-.503906c0-1.46875-1.179687-2.648438-2.644531-2.648438zm0 43.992188v.507812c0 .546875.445313.992188.996094.992188h48.289063c.550781 0 .992187-.445313.992187-.992188v-.507812c0 .550781-.441406.992187-.992187.992187h-48.289063c-.550781 0-.996094-.441406-.996094-.992187zm0 0" fill="#fff" fill-opacity=".588235"/><path d="m7.609375 11.101562c-.550781 0-.996094.441407-.996094.992188v.480469c0-.550781.445313-.992188.996094-.992188h48.289063c.550781 0 .992187.441407.992187.992188v-.480469c0-.550781-.441406-.992188-.992187-.992188zm-3.640625 41.84375v.476563c0 1.464844 1.179688 2.644531 2.644531 2.644531h50.277344c1.464844 0 2.644531-1.179687 2.644531-2.644531v-.476563c0 1.464844-1.179687 2.644532-2.644531 2.644532h-50.277344c-1.464843 0-2.644531-1.179688-2.644531-2.644532zm0 0" fill-opacity=".235294"/><path d="m199.941547 255.093763c-44.287112 0-79.952999 35.665888-79.952999 80.071098v1279.956578c0 44.287112 35.665887 79.952999 79.952999 79.952999h1520.051773c44.287111 0 79.952999-35.665887 79.952999-79.952999v-1279.956578c0-44.40521-35.665888-80.071098-79.952999-80.071098zm30.115236 80.071098h1459.9394c16.651954 0 29.997137 13.345183 29.997137 29.997137v1219.962304c0 16.651954-13.345183 29.997137-29.997137 29.997137h-1459.9394c-16.651954 0-30.115236-13.345183-30.115236-29.997137v-1219.962304c0-16.651954 13.463282-29.997137 30.115236-29.997137zm0 0" fill="none" stroke="#212121" stroke-linecap="round" stroke-width="11.338583" transform="scale(.0330761)"/><path d="m10.585938 13.730469c-.734376 0-1.324219.589843-1.324219 1.324219v5.289062c0 .367188.292969.664062.660156.664062s.664063-.296874.664063-.664062v-4.628906c0-.367188.292968-.660156.660156-.660156h3.308594c.367187 0 .660156-.296876.660156-.664063 0-.363281-.292969-.660156-.660156-.660156zm6.613281 0c-.367188 0-.660157.296875-.660157.660156 0 .367187.292969.664063.660157.664063h2.644531c.367188 0 .664062-.296876.664062-.664063 0-.363281-.296874-.660156-.664062-.660156zm5.292969 0c-.367188 0-.660157.296875-.660157.660156 0 .367187.292969.664063.660157.664063h2.644531c.367187 0 .664062-.296876.664062-.664063 0-.363281-.296875-.660156-.664062-.660156zm5.292968 0c-.367187 0-.664062.296875-.664062.660156 0 .367187.296875.664063.664062.664063h2.644532c.367187 0 .660156-.296876.660156-.664063 0-.363281-.292969-.660156-.660156-.660156zm5.289063 0c-.363281 0-.660157.296875-.660157.660156 0 .367187.296876.664063.660157.664063h2.648437c.367188 0 .660156-.296876.660156-.664063 0-.363281-.292968-.660156-.660156-.660156zm5.292969 0c-.367188 0-.660157.296875-.660157.660156 0 .367187.292969.664063.660157.664063h2.648437c.363281 0 .660156-.296876.660156-.664063 0-.363281-.296875-.660156-.660156-.660156zm5.292968 0c-.367187 0-.660156.296875-.660156.660156 0 .367187.292969.664063.660156.664063h2.644532c.367187 0 .664062-.296876.664062-.664063 0-.363281-.296875-.660156-.664062-.660156zm5.292969 0c-.367187 0-.660156.296875-.660156.660156 0 .367187.292969.664063.660156.664063h3.308594c.363281 0 .660156.292968.660156.660156v4.628906c0 .367188.292969.664062.660156.664062.367188 0 .664063-.296874.664063-.664062v-5.289062c0-.734376-.589844-1.324219-1.324219-1.324219zm-39.03125 8.601562c-.367187 0-.660156.292969-.660156.660157v2.644531c0 .367187.292969.664062.660156.664062s.664063-.296875.664063-.664062v-2.644531c0-.367188-.296876-.660157-.664063-.660157zm43.660156 0c-.367187 0-.660156.292969-.660156.660157v2.644531c0 .367187.292969.664062.660156.664062.367188 0 .664063-.296875.664063-.664062v-2.644531c0-.367188-.296875-.660157-.664063-.660157zm-43.660156 5.289063c-.367187 0-.660156.296875-.660156.664062v2.644532c0 .367187.292969.660156.660156.660156s.664063-.292969.664063-.660156v-2.644532c0-.367187-.296876-.664062-.664063-.664062zm43.660156 0c-.367187 0-.660156.296875-.660156.664062v2.644532c0 .367187.292969.660156.660156.660156.367188 0 .664063-.292969.664063-.660156v-2.644532c0-.367187-.296875-.664062-.664063-.664062zm-43.660156 5.292968c-.367187 0-.660156.296876-.660156.660157v2.648437c0 .367188.292969.660156.660156.660156s.664063-.292968.664063-.660156v-2.648437c0-.363281-.296876-.660157-.664063-.660157zm43.660156 0c-.367187 0-.660156.296876-.660156.660157v2.648437c0 .367188.292969.660156.660156.660156.367188 0 .664063-.292968.664063-.660156v-2.648437c0-.363281-.296875-.660157-.664063-.660157zm-43.660156 5.292969c-.367187 0-.660156.292969-.660156.660157v2.648437c0 .363281.292969.660156.660156.660156s.664063-.296875.664063-.660156v-2.648437c0-.367188-.296876-.660157-.664063-.660157zm43.660156 0c-.367187 0-.660156.292969-.660156.660157v2.648437c0 .363281.292969.660156.660156.660156.367188 0 .664063-.296875.664063-.660156v-2.648437c0-.367188-.296875-.660157-.664063-.660157zm-43.660156 5.292969c-.367187 0-.660156.292969-.660156.660156v5.292969c0 .734375.589843 1.324219 1.324219 1.324219h3.96875c.367187 0 .660156-.296875.660156-.664063 0-.367187-.292969-.660156-.660156-.660156-.003907 0-.003907 0-.003907 0h-3.304687c-.367188 0-.660156-.296875-.660156-.660156v-4.632813c0-.367187-.296876-.660156-.664063-.660156zm43.660156 0c-.367187 0-.660156.292969-.660156.660156v4.632813c0 .363281-.296875.660156-.660156.660156h-3.304688c-.003906 0-.003906 0-.003906 0-.367187 0-.660156.292969-.660156.660156 0 .367188.292969.664063.660156.664063h3.96875c.734375 0 1.324219-.589844 1.324219-1.324219v-5.292969c0-.367187-.296875-.660156-.664063-.660156zm-36.382812 5.953125c-.367188 0-.660157.292969-.660157.660156 0 .367188.292969.664063.660157.664063h2.644531c.367188 0 .664062-.296875.664062-.664063 0-.367187-.296874-.660156-.664062-.660156h-2.640625zm5.292969 0c-.367188 0-.660157.292969-.660157.660156 0 .367188.292969.664063.660157.664063h2.644531c.367187 0 .664062-.296875.664062-.664063 0-.367187-.296875-.660156-.664062-.660156h-2.640625c-.003906 0-.003906 0-.003906 0zm5.292968 0c-.367187 0-.664062.292969-.664062.660156 0 .367188.296875.664063.664062.664063h2.644532c.367187 0 .660156-.296875.660156-.664063 0-.367187-.292969-.660156-.660156-.660156 0 0 0 0-.003907 0zm5.289063 0c-.363281 0-.660157.292969-.660157.660156 0 .367188.296876.664063.660157.664063h2.648437c.367188 0 .660156-.296875.660156-.664063 0-.367187-.292968-.660156-.660156-.660156h-.003906-2.640625s0 0-.003906 0zm5.292969 0c-.367188 0-.660157.292969-.660157.660156 0 .367188.292969.664063.660157.664063h2.648437c.363281 0 .660156-.296875.660156-.664063 0-.367187-.296875-.660156-.660156-.660156-.003906 0-.003906 0-.003906 0h-2.640625zm5.292968 0c-.367187 0-.660156.292969-.660156.660156 0 .367188.292969.664063.660156.664063h2.644532c.367187 0 .664062-.296875.664062-.664063 0-.367187-.296875-.660156-.664062-.660156h-2.640626zm0 0" fill="#fff" fill-opacity=".529412"/></svg>

<?xml version="1.0" encoding="UTF-8"?>
<svg xmlns="http://www.w3.org/2000/svg" xmlns:xlink="http://www.w3.org/1999/xlink" width="64px" height="64px" viewBox="0 0 64 64" version="1.1">
<defs>
<linearGradient id="linear0" gradientUnits="userSpaceOnUse" x1="254" y1="233.5" x2="254" y2="254.666672" gradientTransform="matrix(0.125012,0,0,0.125012,-0.00000763012,26.877566)">
<stop offset="0" style="stop-color:rgb(0%,0%,0%);stop-opacity:0.27451;"/>
<stop offset="1" style="stop-color:rgb(0%,0%,0%);stop-opacity:0;"/>
</linearGradient>
<radialGradient id="radial0" gradientUnits="userSpaceOnUse" cx="450.908936" cy="189.579361" fx="450.908936" fy="189.579361" r="21.166656" gradientTransform="matrix(0.000000348341,-0.156265,-0.281277,-0.000000203077,106.907382,127.190661)">
<stop offset="0" style="stop-color:rgb(0%,0%,0%);stop-opacity:0.313726;"/>
<stop offset="0.222222" style="stop-color:rgb(0%,0%,0%);stop-opacity:0.27451;"/>
<stop offset="1" style="stop-color:rgb(0%,0%,0%);stop-opacity:0;"/>
</radialGradient>
<radialGradient id="radial1" gradientUnits="userSpaceOnUse" cx="450.908936" cy="189.579361" fx="450.908936" fy="189.579361" r="21.166656" gradientTransform="matrix(-0.000000348341,0.156265,0.281277,0.000000203077,-43.401323,-15.054962)">
<stop offset="0" style="stop-color:rgb(0%,0%,0%);stop-opacity:0.313726;"/>
<stop offset="0.222222" style="stop-color:rgb(0%,0%,0%);stop-opacity:0.27451;"/>
<stop offset="1" style="stop-color:rgb(0%,0%,0%);stop-opacity:0;"/>
</radialGradient>
<radialGradient id="radial2" gradientUnits="userSpaceOnUse" cx="450.908936" cy="189.579361" fx="450.908936" fy="189.579361" r="21.166656" gradientTransform="matrix(-0.000000348341,-0.156265,0.281277,-0.000000203077,-43.401323,127.190661)">
<stop offset="0" style="stop-color:rgb(0%,0%,0%);stop-opacity:0.313726;"/>
<stop offset="0.222222" style="stop-color:rgb(0%,0%,0%);stop-opacity:0.27451;"/>
<stop offset="1" style="stop-color:rgb(0%,0%,0%);stop-opacity:0;"/>
</radialGradient>
<radialGradient id="radial3" gradientUnits="userSpaceOnUse" cx="450.908936" cy="189.579361" fx="450.908936" fy="189.579361" r="21.166656" gradientTransform="matrix(0.000000348341,0.156265,-0.281277,0.000000203077,106.907378,-15.054963)">
<stop offset="0" style="stop-color:rgb(0%,0%,0%);stop-opacity:0.313726;"/>
<stop offset="0.222222" style="stop-color:rgb(0%,0%,0%);stop-opacity:0.27451;"/>
<stop offset="1" style="stop-color:rgb(0%,0%,0%);stop-opacity:0;"/>
</radialGradient>
<linearGradient id="linear1" gradientUnits="userSpaceOnUse" x1="306.916656" y1="-25.791676" x2="305.954559" y2="-135.329163" gradientTransform="matrix(0.150699,0,0,0.434824,-11.708026,67.282696)">
<stop offset="0" style="stop-color:rgb(36.078432%,41.960785%,75.294119%);stop-opacity:1;"/>
<stop offset="1" style="stop-color:rgb(47.450981%,52.549022%,79.607844%);stop-opacity:1;"/>
</linearGradient>
<linearGradient id="linear2" gradientUnits="userSpaceOnUse" x1="960" y1="1295.118164" x2="960" y2="255.118118" gradientTransform="matrix(0.041695,0,0,0.041695,-7.904723,2.488869)">
<stop offset="0" style="stop-color:rgb(25.882354%,25.882354%,25.882354%);stop-opacity:1;"/>
<stop offset="1" style="stop-color:rgb(38.039216%,38.039216%,38.039216%);stop-opacity:1;"/>
</linearGradient>
<linearGradient id="linear3" gradientUnits="userSpaceOnUse" x1="306.916656" y1="-25.791676" x2="305.954559" y2="-135.329163" gradientTransform="matrix(0.150699,0,0,0.434824,-11.708026,67.282692)">
<stop offset="0" style="stop-color:rgb(99.215686%,99.215686%,99.215686%);stop-opacity:0.235294;"/>
<stop offset="1" style="stop-color:rgb(100%,100%,100%);stop-opacity:0.196078;"/>
</linearGradient>
<linearGradient id="linear4" gradientUnits="userSpaceOnUse" x1="301.625" y1="-84" x2="301.625" y2="-136.916672" gradientTransform="matrix(0.157587,0,0,0.157587,-6.236929,40.494353)">
<stop offset="0" style="stop-color:rgb(100%,65.490198%,14.901961%);stop-opacity:1;"/>
<stop offset="1" style="stop-color:rgb(100%,71.764708%,30.19608%);stop-opacity:1;"/>
</linearGradient>
<linearGradient id="linear5" gradientUnits="userSpaceOnUse" x1="960" y1="1295.118164" x2="960" y2="255.118118" gradientTransform="matrix(0.041695,0,0,0.041695,-7.904723,2.48887)">
<stop offset="0" style="stop-color:rgb(56.470591%,64.313728%,68.235296%);stop-opacity:1;"/>
<stop offset="1" style="stop-color:rgb(69.01961%,74.509805%,77.254903%);stop-opacity:1;"/>
</linearGradient>
</defs>
<g id="surface1">
<path style=" stroke:none;fill-rule:nonzero;fill:url(#linear0);" d="M 9.261719 56.066406 L 54.246094 56.066406 L 54.246094 58.714844 L 9.261719 58.714844 Z M 9.261719 56.066406 "/>
<path style=" stroke:none;fill-rule:nonzero;fill:url(#radial0);" d="M 54.246094 56.066406 L 59.535156 56.066406 L 59.535156 53.421875 L 54.246094 53.421875 Z M 54.246094 56.066406 "/>
<path style=" stroke:none;fill-rule:nonzero;fill:url(#radial1);" d="M 9.261719 56.066406 L 3.96875 56.066406 L 3.96875 58.714844 L 9.261719 58.714844 Z M 9.261719 56.066406 "/>
<path style=" stroke:none;fill-rule:nonzero;fill:url(#radial2);" d="M 9.261719 56.066406 L 3.96875 56.066406 L 3.96875 53.421875 L 9.261719 53.421875 Z M 9.261719 56.066406 "/>
<path style=" stroke:none;fill-rule:nonzero;fill:url(#radial3);" d="M 54.246094 56.066406 L 59.535156 56.066406 L 59.535156 58.714844 L 54.246094 58.714844 Z M 54.246094 56.066406 "/>
<path style=" stroke:none;fill-rule:nonzero;fill:url(#linear1);" d="M 6.613281 8.4375 L 56.890625 8.4375 C 58.351562 8.4375 59.535156 9.621094 59.535156 11.085938 L 59.535156 53.421875 C 59.535156 54.882812 58.351562 56.066406 56.890625 56.066406 L 6.613281 56.066406 C 5.152344 56.066406 3.96875 54.882812 3.96875 53.421875 L 3.96875 11.085938 C 3.96875 9.621094 5.152344 8.4375 6.613281 8.4375 Z M 6.613281 8.4375 "/>
<path style=" stroke:none;fill-rule:nonzero;fill:url(#linear2);" d="M 18.757812 24.8125 C 18.324219 24.820312 17.914062 24.992188 17.609375 25.296875 L 3.96875 38.9375 L 3.96875 53.421875 C 3.96875 54.886719 5.148438 56.066406 6.613281 56.066406 L 56.890625 56.066406 C 58.355469 56.066406 59.535156 54.886719 59.535156 53.421875 L 59.535156 38.800781 L 49.898438 30.234375 C 49.210938 29.625 48.160156 29.691406 47.554688 30.382812 L 37.046875 42.394531 L 19.949219 25.296875 C 19.632812 24.980469 19.203125 24.808594 18.757812 24.8125 Z M 18.757812 24.8125 "/>
<path style=" stroke:none;fill-rule:nonzero;fill:rgb(0%,0%,0%);fill-opacity:0.235294;" d="M 6.613281 56.09375 C 5.148438 56.09375 3.96875 54.914062 3.96875 53.449219 L 3.96875 52.761719 C 3.96875 54.226562 5.148438 55.40625 6.613281 55.40625 L 56.890625 55.40625 C 58.355469 55.40625 59.535156 54.226562 59.535156 52.761719 L 59.535156 53.449219 C 59.535156 54.914062 58.355469 56.09375 56.890625 56.09375 Z M 6.613281 56.09375 "/>
<path style=" stroke:none;fill-rule:nonzero;fill:url(#linear3);" d="M 6.613281 8.4375 C 5.148438 8.4375 3.96875 9.617188 3.96875 11.085938 L 3.96875 53.421875 C 3.96875 54.886719 5.148438 56.066406 6.613281 56.066406 L 56.890625 56.066406 C 58.355469 56.066406 59.535156 54.886719 59.535156 53.421875 L 59.535156 11.085938 C 59.535156 9.617188 58.355469 8.4375 56.890625 8.4375 Z M 15.875 16.375 L 47.628906 16.375 C 49.09375 16.375 50.277344 17.558594 50.277344 19.023438 L 50.277344 45.484375 C 50.277344 46.949219 49.09375 48.128906 47.628906 48.128906 L 15.875 48.128906 C 14.410156 48.128906 13.230469 46.949219 13.230469 45.484375 L 13.230469 19.023438 C 13.230469 17.558594 14.410156 16.375 15.875 16.375 Z M 15.875 16.375 "/>
<path style=" stroke:none;fill-rule:nonzero;fill:rgb(100%,100%,100%);fill-opacity:0.392157;" d="M 6.613281 8.589844 C 5.148438 8.589844 3.96875 9.769531 3.96875 11.238281 L 3.96875 11.554688 C 3.96875 10.089844 5.148438 8.910156 6.613281 8.910156 L 56.890625 8.910156 C 58.355469 8.910156 59.535156 10.089844 59.535156 11.554688 L 59.535156 11.238281 C 59.535156 9.769531 58.355469 8.589844 56.890625 8.589844 Z M 6.613281 8.589844 "/>
<path style=" stroke:none;fill-rule:nonzero;fill:rgb(12.941177%,12.941177%,12.941177%);fill-opacity:1;" d="M 6.613281 8.25 C 5.046875 8.25 3.78125 9.519531 3.78125 11.085938 L 3.78125 53.421875 C 3.78125 54.988281 5.046875 56.253906 6.613281 56.253906 L 56.890625 56.253906 C 58.457031 56.253906 59.722656 54.988281 59.722656 53.421875 L 59.722656 11.085938 C 59.722656 9.519531 58.457031 8.25 56.890625 8.25 Z M 6.613281 8.625 L 56.890625 8.625 C 58.257812 8.625 59.347656 9.71875 59.347656 11.085938 L 59.347656 53.421875 C 59.347656 54.789062 58.257812 55.878906 56.890625 55.878906 L 6.613281 55.878906 C 5.25 55.878906 4.15625 54.789062 4.15625 53.421875 L 4.15625 11.085938 C 4.15625 9.71875 5.25 8.625 6.613281 8.625 Z M 6.613281 8.625 "/>
<path style=" stroke:none;fill-rule:nonzero;fill:url(#linear4);" d="M 41.296875 18.917969 C 43.597656 18.917969 45.464844 20.785156 45.464844 23.085938 C 45.464844 25.390625 43.597656 27.257812 41.296875 27.257812 C 38.992188 27.257812 37.125 25.390625 37.125 23.085938 C 37.125 20.785156 38.992188 18.917969 41.296875 18.917969 Z M 41.296875 18.917969 "/>
<path style=" stroke:none;fill-rule:nonzero;fill:url(#linear5);" d="M 18.757812 24.8125 C 18.324219 24.820312 17.914062 24.992188 17.609375 25.296875 L 11.105469 31.804688 L 12.941406 33.972656 C 13.777344 34.808594 16.199219 34.851562 18.78125 33.140625 C 20.433594 31.496094 22.417969 31.644531 23.785156 33.140625 C 25.722656 34.9375 27.480469 34.808594 29.460938 34.808594 L 19.949219 25.296875 C 19.632812 24.980469 19.203125 24.808594 18.757812 24.8125 Z M 48.777344 29.816406 C 48.324219 29.824219 47.875 30.015625 47.554688 30.382812 L 43.683594 34.808594 L 43.796875 34.808594 C 44.085938 35.441406 44.214844 37.726562 45.464844 36.476562 C 47.601562 34.339844 47.964844 35.222656 48.800781 36.058594 C 50.050781 37.308594 50.886719 38.558594 52.136719 38.144531 C 54.222656 37.308594 54.585938 35.25 53.660156 33.574219 L 49.898438 30.234375 C 49.578125 29.949219 49.175781 29.8125 48.777344 29.816406 Z M 48.777344 29.816406 "/>
<path style="fill:none;stroke-width:3;stroke-linecap:round;stroke-linejoin:round;stroke:rgb(12.941177%,12.941177%,12.941177%);stroke-opacity:1;stroke-miterlimit:4;" d="M 126.987873 -84.012509 L 380.994867 -84.012509 C 392.681251 -84.012509 402.180344 -74.513416 402.180344 -62.827032 L 402.180344 148.840255 C 402.180344 160.526639 392.681251 169.994485 380.994867 169.994485 L 126.987873 169.994485 C 115.301489 169.994485 105.833643 160.526639 105.833643 148.840255 L 105.833643 -62.827032 C 105.833643 -74.513416 115.301489 -84.012509 126.987873 -84.012509 Z M 126.987873 -84.012509 " transform="matrix(0.125012,0,0,0.125012,0,26.877566)"/>
</g>
</svg>
